src/images/GeneFit/Watch3.svg

<svg fill="none" height="100" viewBox="0 0 100 100" width="100" xmlns="http://www.w3.org/2000/svg"><g fill="#ec8539"><path d="m53.1552 6.26756c-1.05-.07783-2.1024-.11681-3.1552-.11687v-6.15069c1.2041.00058941 2.4077.0457251 3.6085.135315zm12.2775 2.76781c-1.9638-.76082-3.9808-1.3755-6.0346-1.83906l1.3417-6.00308c2.3465.52896 4.6562 1.23014 6.8985 2.10354zm8.3934 4.36703c-.876-.5865-1.7731-1.1405-2.6896-1.6607l3.0204-5.35113c2.0947 1.19161 4.0994 2.53607 5.9979 4.02253l-3.7678 4.8529c-.8306-.6505-1.6848-1.2701-2.5609-1.8575zm11.236 11.0097c-1.2118-1.7285-2.549-3.3649-4.0006-4.896l4.4356-4.2439c1.6542 1.7529 3.1858 3.6289 4.5765 5.5971zm4.5582 8.3157c-.4022-.9751-.8395-1.9353-1.3111-2.8785l5.471-2.7678c1.0819 2.1594 2.0034 4.3962 2.7569 6.692l-5.8202 1.9251c-.3292-1.0034-.695-1.9943-1.0966-2.9708zm3.247 15.4198c-.0495-2.1137-.2543-4.2209-.6126-6.3044l6.0346-1.0457c.4105 2.3742.6494 4.7853.7107 7.1963l-6.1265.1538zm-.8025 9.4598c.2021-1.0456.3676-2.0851.4962-3.1369l6.0837.7566c-.2943 2.3997-.7653 4.7742-1.4091 7.104l-5.906-1.6422c.2818-1.0149.5269-2.0421.7352-3.0815zm-5.8325 14.6325c1.1273-1.7837 2.1198-3.6535 2.9775-5.5849l5.5997 2.4911c-.9803 2.2142-2.1137 4.3424-3.4003 6.3844zm-5.906 7.4116c.7475-.7504 1.4643-1.5254 2.1443-2.325l4.6439 4.0164c-.7864.9154-1.6059 1.8017-2.4567 2.6571z"/><path d="m50.2135 6.18673c-7.0786.00051-14.0478 1.75732-20.2903 5.11477-6.2426 3.3575-11.5658 8.2121-15.4982 14.1337s-6.3526 12.7275-7.04623 19.8149c-.69364 7.0874.36069 14.2375 3.06963 20.817 2.7089 6.5796 6.9888 12.3854 12.4606 16.9034s11.9666 7.6086 18.9091 8.9981 14.1185 1.035 20.8923-1.032c6.7739-2.0671 12.9365-5.783 17.9421-10.8185l4.3475 4.374c-5.7205 5.7585-12.7644 10.0085-20.5076 12.3735-7.7433 2.3649-15.9468 2.7718-23.8837 1.1846s-15.3622-5.1195-21.6179-10.2839-11.14874-11.8015-14.24553-19.3232c-3.09678-7.5217-4.301718-15.6958-3.50804-23.798.79367-8.1022 3.56145-15.8824 8.0581-22.6512 4.49667-6.7688 10.58337-12.31717 17.72077-16.15361s15.1052-5.84244751 23.1974-5.84028826z"/><path d="m47.1182 18c.827 0 1.6202.3287 2.2049.9138.5848.585.9134 1.3786.9134 2.206v32.5083l20.256 11.5807c.6972.4208 1.2022 1.0978 1.4071 1.8862s.0935 1.6257-.3105 2.333c-.4039.7073-1.0684 1.2285-1.8513 1.4521-.783.2237-1.6223.132-2.3386-.2553l-21.8276-12.4792c-.4773-.2728-.874-.6669-1.15-1.1424-.276-.4756-.4214-1.0157-.4216-1.5656v-34.3178c0-.8274.3285-1.621.9133-2.206.5848-.5851 1.3779-.9138 2.2049-.9138z"/></g></svg>

<svg width="100" height="100" viewBox="0 0 100 100" fill="none" xmlns="http://www.w3.org/2000/svg">
<path d="M53.1552 6.26756C52.1052 6.18973 51.0528 6.15075 50 6.15069V0C51.2041 0.000589406 52.4077 0.0457251 53.6085 0.135315L53.1552 6.26756ZM65.4327 9.03537C63.4689 8.27455 61.4519 7.65987 59.3981 7.19631L60.7398 1.19323C63.0863 1.72219 65.396 2.42337 67.6383 3.29677L65.4327 9.03537V9.03537ZM73.8261 13.4024C72.9501 12.8159 72.053 12.2619 71.1365 11.7417L74.1569 6.39057C76.2516 7.58218 78.2563 8.92664 80.1548 10.4131L76.387 15.266C75.5564 14.6155 74.7022 13.9959 73.8261 13.4085V13.4024ZM85.0621 24.4121C83.8503 22.6836 82.5131 21.0472 81.0615 19.5161L85.4971 15.2722C87.1513 17.0251 88.6829 18.9011 90.0736 20.8693L85.0621 24.4121V24.4121ZM89.6203 32.7278C89.2181 31.7527 88.7808 30.7925 88.3092 29.8493L93.7802 27.0815C94.8621 29.2409 95.7836 31.4777 96.5371 33.7735L90.7169 35.6986C90.3877 34.6952 90.0219 33.7043 89.6203 32.7278V32.7278ZM92.8673 48.1476C92.8178 46.0339 92.613 43.9267 92.2547 41.8432L98.2893 40.7975C98.6998 43.1717 98.9387 45.5828 99 47.9938L92.8735 48.1476H92.8673ZM92.0648 57.6074C92.2669 56.5618 92.4324 55.5223 92.561 54.4705L98.6447 55.2271C98.3504 57.6268 97.8794 60.0013 97.2356 62.3311L91.3296 60.6889C91.6114 59.674 91.8565 58.6468 92.0648 57.6074V57.6074ZM86.2323 72.2399C87.3596 70.4562 88.3521 68.5864 89.2098 66.655L94.8095 69.1461C93.8292 71.3603 92.6958 73.4885 91.4092 75.5305L86.2323 72.2399ZM80.3263 79.6515C81.0738 78.9011 81.7906 78.1261 82.4706 77.3265L87.1145 81.3429C86.3281 82.2583 85.5086 83.1446 84.6578 84L80.3263 79.6515V79.6515Z" fill="#EC8539"/>
<path d="M50.2135 6.18673C43.1349 6.18724 36.1657 7.94405 29.9232 11.3015C23.6806 14.659 18.3574 19.5136 14.425 25.4352C10.4926 31.3568 8.0724 38.1627 7.37877 45.2501C6.68513 52.3375 7.73946 59.4876 10.4484 66.0671C13.1573 72.6467 17.4372 78.4525 22.909 82.9705C28.3808 87.4885 34.8756 90.5791 41.8181 91.9686C48.7606 93.3581 55.9366 93.0036 62.7104 90.9366C69.4843 88.8695 75.6469 85.1536 80.6525 80.1181L85 84.4921C79.2795 90.2506 72.2356 94.5006 64.4924 96.8656C56.7491 99.2305 48.5456 99.6374 40.6087 98.0502C32.6718 96.463 25.2465 92.9307 18.9908 87.7663C12.7351 82.6019 7.84206 75.9648 4.74527 68.4431C1.64849 60.9214 0.443552 52.7473 1.23723 44.6451C2.0309 36.5429 4.79868 28.7627 9.29533 21.9939C13.792 15.2251 19.8787 9.67673 27.0161 5.84029C34.1535 2.00385 42.1213 -0.00215751 50.2135 1.74131e-06V6.18673Z" fill="#EC8539"/>
<path d="M47.1182 18C47.9452 18 48.7384 18.3287 49.3231 18.9138C49.9079 19.4988 50.2365 20.2924 50.2365 21.1198V53.6281L70.4925 65.2088C71.1897 65.6296 71.6947 66.3066 71.8996 67.095C72.1045 67.8834 71.9931 68.7207 71.5891 69.428C71.1852 70.1353 70.5207 70.6565 69.7378 70.8801C68.9548 71.1038 68.1155 71.0121 67.3992 70.6248L45.5716 58.1456C45.0943 57.8728 44.6976 57.4787 44.4216 57.0032C44.1456 56.5276 44.0002 55.9875 44 55.4376V21.1198C44 20.2924 44.3285 19.4988 44.9133 18.9138C45.4981 18.3287 46.2912 18 47.1182 18V18Z" fill="#EC8539"/>
</svg>
